X: 950
T: Sweet Marie
C:Raymond Moore (1893)
B: jims roots
M:2/4
L:1/8
R: march, reel
Q: 1/4=100
K:A
V:1 
cB | "A"AEAB c2 BA | "D"defa "A"e2 cd | e2 fa c2 dc | "E7"(B4 B2) ||
cB | "A"AEAB c2 BA | "D"defa "A"e2 cd | e2 fa "E7"B2 cB |  "A"(A4 A2) |]
ag | "D"f2 fg a2 gf | "A"e2 AB c2 cd | e2 fa c2 dc | "E7"(B4 B2) ||
cB | "A"AEAB c2 BA | "D"defa "A"e2 cd | e2 fa "E7"B2 cB |  "A"(A4 A2) |]
% abcbook-tune_id 6298c297cc08de594aba94ff


% abcbook-boost 0
% abcbook-tablature 
% abcbook-transpose 
% abcbook-lastupdated 1654178455789
% abcbook-soundfonts 
% abcbook-repeats 1


